X: 185
T: The Touchstone
%R: march, reel
B: Chas & Sam Thompson "Twenty Four Country Dances for the Year 1780", London 1780, p.93 #1
F: http://www.vwml.org/browse/browse-collections-dance-tune-books/browse-thompsons1780
Z: 2014 John Chambers <jc:trillian.mit.edu> (added dance description)
M: 2/4
L: 1/16
K: D
% - - - - - - - - - - - - - - - - - - - - - - - - - - - - -
|:\
d2f2d2f2 | (gfed) (dcBA) | d2f2d2f2 | a2a2 a4 |\
d2f2d2f2 | (gfed) (dcBA) | B2g2e2c2 | d4- d4 :|
|:\
{cd}e2c2f2d2 | g2e2a2f2 | B4 c2d2 | (cdcB) A4 |\
e2c2f2d2 | g2e2a2f2 | G2b2 (agfe) | d4- d4 :|
% - - - - - - - - - - Dance description - - - - - - - - - -
%%begintext align
%%   Hey contrary sides .|. then the same on
%% your own sides :|. Hands 6 quite round .|:
%% Lead thro' the 3d Cu and cast up one Lead
%% Thro' the top and cast off :|:
%%endtext

%%sep 1 1 500
%%sep 1 1 500
